X:1
T:The Basket of Oysters
M:2/4
L:1/8
K:G
B-c| d2B-B| c2-A-A|d-A AG| F4-| F2D-D| EE EF| GG BB| AB AF| D4-| D2B-c|\
 d2 BB| c2 AA| dA AG| F4-| F2 DD| E2 EE| F2 ED| G4| G4-| G2||
